_includes/icons/color-permanent-job.svg

<svg fill="#666" height="50" viewBox="0 0 48 48" width="50" xmlns="http://www.w3.org/2000/svg"><path d="m42 39h-25v-32c0-2.199219 1.800781-4 4-4h17c2.199219 0 4 1.800781 4 4z" fill="#90caf9"/><path d="m17 39h25v2h-25z" fill="#64b5f6"/><path d="m31 32h6v9h-6z" fill="#bf360c"/><path d="m37 29h-6v-5h6zm-9-5h-6v5h6zm0 8h-6v5h6zm9-16h-6v5h6zm-9 0h-6v5h6zm9-8h-6v5h6zm-9 0h-6v5h6z" fill="#1565c0"/><path d="m26 26.5c0 .800781-.699219 1.5-1.5 1.5s-1.5-.699219-1.5-1.5.699219-1.5 1.5-1.5 1.5.699219 1.5 1.5m-13 0c0-.800781-.699219-1.5-1.5-1.5s-1.5.699219-1.5 1.5.699219 1.5 1.5 1.5 1.5-.699219 1.5-1.5" fill="#ffa726"/><path d="m18 39c-4 0-4-4-4-4v-4h8v4s0 4-4 4z" fill="#ff9800"/><path d="m25 22.699219c0-5.898438-14-3.800781-14 0v4.402344c0 3.796875 3.101563 6.898437 7 6.898437 3.898438 0 7-3.101562 7-6.898437z" fill="#ffb74d"/><path d="m18 15c-4.898437 0-8 4.300781-8 8.199219v1.800781l2 2v-4l9.199219-3 2.800781 3v4l2-2v-.800781c0-3.199219-.800781-6.800781-4.800781-7.597656l-.800781-1.601563z" fill="#424242"/><path d="m20 26c0-.601562.398438-1 1-1 .601563 0 1 .398438 1 1 0 .601563-.398437 1-1 1-.601562 0-1-.398437-1-1m-6 0c0 .601563.398438 1 1 1 .601563 0 1-.398437 1-1 0-.601562-.398437-1-1-1-.601562 0-1 .398438-1 1" fill="#784719"/><path d="m22 35-4 2-4-2s-8 1.5-8 10h24c0-8.398437-8.300781-10-8.300781-10" fill="#455a64"/><path d="m18 44 4-9-4 1-4-1z" fill="#fff"/><path d="m17 39-.300781 2.101563 1.300781 2.898437 1.300781-2.898437-.300781-2.101563 1-1-2-2-2 2z" fill="#d32f2f"/></svg>

<svg xmlns="http://www.w3.org/2000/svg" viewBox="0 0 48 48" width="50" height="50" fill="#666"><path d="M 42 39 L 17 39 L 17 7 C 17 4.800781 18.800781 3 21 3 L 38 3 C 40.199219 3 42 4.800781 42 7 Z" fill="#90caf9"/><path d="M 17 39 L 42 39 L 42 41 L 17 41 Z" fill="#64b5f6"/><path d="M 31 32 L 37 32 L 37 41 L 31 41 Z" fill="#bf360c"/><path d="M 37 29 L 31 29 L 31 24 L 37 24 Z M 28 24 L 22 24 L 22 29 L 28 29 Z M 28 32 L 22 32 L 22 37 L 28 37 Z M 37 16 L 31 16 L 31 21 L 37 21 Z M 28 16 L 22 16 L 22 21 L 28 21 Z M 37 8 L 31 8 L 31 13 L 37 13 Z M 28 8 L 22 8 L 22 13 L 28 13 Z" fill="#1565c0"/><path d="M 26 26.5 C 26 27.300781 25.300781 28 24.5 28 C 23.699219 28 23 27.300781 23 26.5 C 23 25.699219 23.699219 25 24.5 25 C 25.300781 25 26 25.699219 26 26.5 M 13 26.5 C 13 25.699219 12.300781 25 11.5 25 C 10.699219 25 10 25.699219 10 26.5 C 10 27.300781 10.699219 28 11.5 28 C 12.300781 28 13 27.300781 13 26.5" fill="#ffa726"/><path d="M 18 39 C 14 39 14 35 14 35 L 14 31 L 22 31 L 22 35 C 22 35 22 39 18 39 Z" fill="#ff9800"/><path d="M 25 22.699219 C 25 16.800781 11 18.898438 11 22.699219 L 11 27.101563 C 11 30.898438 14.101563 34 18 34 C 21.898438 34 25 30.898438 25 27.101563 Z" fill="#ffb74d"/><path d="M 18 15 C 13.101563 15 10 19.300781 10 23.199219 L 10 25 L 12 27 L 12 23 L 21.199219 20 L 24 23 L 24 27 L 26 25 L 26 24.199219 C 26 21 25.199219 17.398438 21.199219 16.601563 L 20.398438 15 Z" fill="#424242"/><path d="M 20 26 C 20 25.398438 20.398438 25 21 25 C 21.601563 25 22 25.398438 22 26 C 22 26.601563 21.601563 27 21 27 C 20.398438 27 20 26.601563 20 26 M 14 26 C 14 26.601563 14.398438 27 15 27 C 15.601563 27 16 26.601563 16 26 C 16 25.398438 15.601563 25 15 25 C 14.398438 25 14 25.398438 14 26" fill="#784719"/><path d="M 22 35 L 18 37 L 14 35 C 14 35 6 36.5 6 45 L 30 45 C 30 36.601563 21.699219 35 21.699219 35" fill="#455a64"/><path d="M 18 44 L 22 35 L 18 36 L 14 35 Z" fill="#fff"/><path d="M 17 39 L 16.699219 41.101563 L 18 44 L 19.300781 41.101563 L 19 39 L 20 38 L 18 36 L 16 38 Z" fill="#d32f2f"/></svg>
